X:1
T:Title
%%score ( 1 2 ) ( 3 4 )
L:1/8
Q:1/4=100
M:3/4
K:Eb
V:1 treble nm="Midi_20"
V:2 treble 
V:3 bass nm="Midi_20"
V:4 bass 
V:1
"^Misericordia (8 8. 8 6.)""^Henry Smart\n(1813-1879)""^Just as I am, without one plea""^Charlotte Elliott\n(1789-1871)" G2 F2 E2 | %1
 A4 G2 | c4 c2 | B6 || B2 D2 E2 | F4 G2 | E4 A2 | (G2 F4) || F2 B2 F2 | G4 c2 | B4 =A2 | %11
 (B2 c2) d2 | (e2 d2) c2 | B4 A2 | G6 |] %15
V:2
 E2 B,2 B,2 | E4 E2 | E4 F2 | B,6 || E2 D2 C2 | B,4 B,2 | C4 F2 | (E2 D4) || D2 F2 D2 | E4 G2 | %10
w: Just as I|am, with-|out one|plea|But that Thy|blood was|* for|me, *|||
w: Just as I|am, and|wait- ing|not|To rid my|soul of|* dark|blot, *|||
w: Just as I|am, though|tossed a-|bout|With many a|con- flict,|* a|doubt, *|||
w: Just as I|am, poor,|wretch- ed,|blind,|Sight, rich- es,|heal- ing|* the|mind, *|||
w: Just as I|am, Thou|wilt re-|ceive,|Wilt wel- come,|par- don,|* re-|lieve, *|||
w: Just as I|am, Thy|love un-|known|Has bro- ken|eve- ry|* rier|down, *|||
w: Just as I|am, of|that free|love|The breadth, length,|depth, and|* to|prove, *|||
 F4 F2 | F4 F2 | E4 E2 | E4 D2 | E6 |] %15
w: |||||
w: |||||
w: |||||
w: |||||
w: |||||
w: |||||
w: |||||
V:3
 B,2 A,2 G,2 | A,4 B,2 | C4 D2 | E6 || B,2 A,2 A,2 | A,4 G,2 | A,4 C2 | B,6 || B,2 F,2 B,2 | %9
w: ||||||||And that Thou|
w: ||||||||To Thee, whose|
w: ||||||||Fight- ings and|
w: ||||||||Yea, all I|
w: ||||||||Be- cause Thy|
w: ||||||||Now to be|
w: ||||||||Here for a|
 B,4 E2 | D4 C2 | (B,2 =A,2) _A,2 | (G,2 B,2) A,2 | (G,2 F,2) B,2 | B,6 |] %15
w: * me|come to|Thee, * O|Lamb * of|God, * I|come.|
w: * can|cleanse each|spot, * O|Lamb * of|God, * I|come.|
w: * with-|in, with-|out, * O|Lamb * of|God, * I|come.|
w: * in|Thee to|find, * O|Lamb * of|God, * I|come.|
w: * mise|I be-|lieve, * O|Lamb * of|God, * I|come.|
w: * yea,|Thine a-|lone, * O|Lamb * of|God, * I|come.|
w: * son,|then a-|bove, * O|Lamb * of|God, * I|come.|
V:4
 E,2 E,2 E,2 | C,4 B,,2 | A,,4 A,2 | G,6 || G,2 F,2 E,2 | D,4 E,2 | (A,2 G,2) F,2 | B,,6 || %8
w: ||||||shed * *||
w: ||||||one * *||
w: ||||||many * *||
w: ||||||of * *||
w: ||||||cleanse, * *||
w: ||||||bar\- * rier||
w: ||||||height * *||
 B,,2 D,2 B,,2 | (E,2 D,2) C,2 | F,4 E,2 | (D,2 C,2) =B,,2 | (C,2 G,,2) A,,2 | B,,4 B,,2 | E,6 |] %15
w: |bidd'st * me||||||
w: |blood * can||||||
w: |fears * with-||||||
w: |need, * in||||||
w: |pro\- * mise||||||
w: |Thine, * yea,||||||
w: |sea\- * son,||||||

